icons/community_meeting.svg

<svg width="48" height="48" viewBox="0 0 48 48" fill="none" xmlns="http://www.w3.org/2000/svg">
<path fill-rule="evenodd" clip-rule="evenodd" d="M34.8077 31.537C34.6184 29.4018 34.234 27.4815 33.3787 26.0356L36.4295 22.9849C39.5427 22.7647 42 20.1693 42 17C42 13.6863 39.3137 11 36 11C35.9562 11 35.9126 11.0005 35.869 11.0014C35.1161 8.163 31.208 6 26.5 6C22.3359 6 18.7975 7.69212 17.5146 10.047C13.8381 10.4009 11 12.7074 11 15.5C11 18.5376 14.3579 21 18.5 21C20.4929 21 22.3043 20.43 23.6475 19.5001C23.7017 19.5999 23.7595 19.7052 23.821 19.8153C24.2788 20.6358 24.9408 21.7359 25.753 22.842C26.5611 23.9423 27.5427 25.0827 28.6469 25.9568C29.5837 26.6984 30.6758 27.301 31.8732 27.4611C32.3606 28.4865 32.6548 29.9002 32.8155 31.7136C32.9992 33.785 33 36.2364 33 39V40H35V38.9655C35 36.2422 35 33.7058 34.8077 31.537ZM32.0181 17.3843C31.963 16.8032 31.6569 16.2752 31.18 15.9387C30.7031 15.6022 30.1029 15.4908 29.537 15.6338C28.6111 15.8678 27.5856 16 26.5 16C26.1222 16 25.7513 15.984 25.389 15.9532C24.6681 15.8918 23.9702 16.2246 23.5641 16.8234C22.7942 17.9587 20.9493 19 18.5 19C16.8095 19 15.3591 18.4947 14.3794 17.7763C13.3985 17.0569 13 16.2286 13 15.5C13 14.2041 14.513 12.3452 17.7062 12.0378C18.3671 11.9742 18.9533 11.5868 19.2709 11.0038C20.0602 9.55501 22.7096 8 26.5 8C28.5625 8 30.3834 8.47629 31.7179 9.1964C33.0818 9.93235 33.7482 10.8067 33.9359 11.5142C34.1725 12.4064 34.989 13.0207 35.9118 13.0009C35.9412 13.0003 35.9706 13 36 13C38.2091 13 40 14.7909 40 17C40 19.2091 38.2091 21 36 21C35.0684 21 34.2108 20.6812 33.5307 20.147L33.1941 19.8508C32.5422 19.2094 32.1092 18.3464 32.0181 17.3843ZM30.9182 20.1914C30.7484 19.9215 30.5994 19.6371 30.4736 19.3405C30.2396 18.7887 30.0859 18.1946 30.027 17.5729C29.3991 17.7315 28.7382 17.8491 28.0525 17.9203C27.5473 17.9727 27.0287 18 26.5 18C26.0657 18 25.6382 17.9816 25.2194 17.946C25.1949 17.9821 25.1699 18.018 25.1443 18.0536C25.2521 18.2624 25.3943 18.5304 25.5675 18.8408C25.999 19.614 26.6165 20.6389 27.365 21.6581C27.4018 21.7082 27.4389 21.7583 27.4762 21.8081L27.4761 21.6621C28.5812 21.6612 29.7407 21.0648 30.7032 20.3544C30.7769 20.3 30.8487 20.2456 30.9182 20.1914ZM28.8854 23.4752C29.2106 23.8092 29.5459 24.1177 29.8883 24.3887C30.3812 24.7789 30.8625 25.0711 31.3278 25.2581L33.9465 22.6394C33.3281 22.4141 32.7571 22.09 32.2527 21.6862C32.1376 21.7778 32.0168 21.8706 31.8909 21.9636C31.1152 22.5362 30.0685 23.1688 28.8854 23.4752Z" fill="black"/>
<path fill-rule="evenodd" clip-rule="evenodd" d="M18.002 25.5003C18.0032 26.881 16.8848 28.0012 15.5041 28.0023C14.1234 28.0035 13.0032 26.8851 13.002 25.5044C13.0009 24.1237 14.1193 23.0035 15.5 23.0023C16.8807 23.0012 18.0009 24.1196 18.002 25.5003ZM16.002 25.5019C16.0023 25.7781 15.7786 26.0021 15.5025 26.0023C15.2263 26.0026 15.0023 25.7789 15.002 25.5028C15.0018 25.2266 15.2255 25.0026 15.5016 25.0023C15.7778 25.0021 16.0018 25.2258 16.002 25.5019Z" fill="black"/>
<path fill-rule="evenodd" clip-rule="evenodd" d="M11.002 29.5003C11.0032 30.881 9.88481 32.0012 8.50409 32.0023C7.12338 32.0035 6.00318 30.8851 6.00205 29.5044C6.00092 28.1237 7.11929 27.0035 8.5 27.0023C9.88071 27.0012 11.0009 28.1196 11.002 29.5003ZM9.00205 29.5019C9.00227 29.7781 8.7786 30.0021 8.50246 30.0023C8.22631 30.0026 8.00227 29.7789 8.00205 29.5028C8.00182 29.2266 8.2255 29.0026 8.50164 29.0023C8.77778 29.0021 9.00182 29.2258 9.00205 29.5019Z" fill="black"/>
<path fill-rule="evenodd" clip-rule="evenodd" d="M25.5041 32.0021C26.8848 32.001 28.0032 30.8808 28.002 29.5001C28.0009 28.1193 26.8807 27.001 25.5 27.0021C24.1193 27.0032 23.0009 28.1234 23.002 29.5042C23.0032 30.8849 24.1234 32.0032 25.5041 32.0021ZM25.5025 30.0021C25.7786 30.0019 26.0023 29.7778 26.002 29.5017C26.0018 29.2255 25.7778 29.0019 25.5016 29.0021C25.2255 29.0023 25.0018 29.2264 25.002 29.5025C25.0023 29.7787 25.2263 30.0023 25.5025 30.0021Z" fill="black"/>
<path d="M15 29C16.1046 29 17 29.8954 17 31V33H19C20.1046 33 21 33.8954 21 35C21 36.1046 20.1046 37 19 37H15C13.8954 37 13 36.1046 13 35V31C13 29.8954 13.8954 29 15 29Z" fill="black"/>
<path d="M10 35C10 33.8954 9.10457 33 8 33C6.89543 33 6 33.8954 6 35V40C6 41.1046 6.89543 42 8 42H12C13.1046 42 14 41.1046 14 40C14 38.8954 13.1046 38 12 38H10V35Z" fill="black"/>
<path d="M26 33C24.8954 33 24 33.8954 24 35V38H22C20.8954 38 20 38.8954 20 40C20 41.1046 20.8954 42 22 42H26C27.1046 42 28 41.1046 28 40V35C28 33.8954 27.1046 33 26 33Z" fill="black"/>
</svg>

<svg
  xmlns="http://www.w3.org/2000/svg"
  width="24"
  height="24"
  viewBox="0 0 24 24"
  fill="none"
  stroke="currentColor"
  stroke-width="2"
  stroke-linecap="round"
  stroke-linejoin="round"
>
  <path
    fill-rule="evenodd"
    d="M34.808 31.537c-.19-2.135-.574-4.055-1.43-5.501l3.051-3.051A6 6 0 0 0 35.87 11C35.116 8.163 31.208 6 26.5 6c-4.164 0-7.703 1.692-8.985 4.047C13.838 10.401 11 12.707 11 15.5c0 3.038 3.358 5.5 7.5 5.5 1.993 0 3.804-.57 5.148-1.5q.08.15.173.315c.458.82 1.12 1.92 1.932 3.027.808 1.1 1.79 2.24 2.894 3.115.937.741 2.029 1.344 3.226 1.504.488 1.026.782 2.44.942 4.253C33 33.785 33 36.236 33 39v1h2v-1.035c0-2.723 0-5.26-.192-7.428m-2.79-14.153a2 2 0 0 0-2.481-1.75A12.4 12.4 0 0 1 26.5 16q-.567 0-1.111-.047a2 2 0 0 0-1.825.87C22.794 17.96 20.95 19 18.5 19c-1.69 0-3.14-.505-4.12-1.224-.982-.72-1.38-1.547-1.38-2.276 0-1.296 1.513-3.155 4.706-3.462a2 2 0 0 0 1.565-1.034C20.06 9.555 22.71 8 26.5 8c2.063 0 3.883.476 5.218 1.196 1.364.736 2.03 1.61 2.218 2.318a2 2 0 0 0 1.976 1.487L36 13a4 4 0 1 1-2.47 7.147l-.336-.296a3.98 3.98 0 0 1-1.176-2.467m-1.1 2.807a6 6 0 0 1-.891-2.618c-.628.159-1.289.276-1.975.347a15 15 0 0 1-2.833.026l-.075.108c.108.208.25.476.424.787a27 27 0 0 0 1.908 2.967v-.146c1.105 0 2.265-.597 3.227-1.308q.111-.08.215-.163m-2.033 3.284c.326.334.66.643 1.003.914q.74.586 1.44.87l2.619-2.62a6 6 0 0 1-1.694-.953q-.173.138-.362.278c-.776.572-1.822 1.205-3.006 1.511"
    clip-rule="evenodd"
  />
  <path
    fill-rule="evenodd"
    d="M18.002 25.5a2.5 2.5 0 1 1-5 .005 2.5 2.5 0 0 1 5-.005m-2 .002a.5.5 0 1 1-1 .001.5.5 0 0 1 1-.001"
    clip-rule="evenodd"
  />
  <path
    fill-rule="evenodd"
    d="M11.002 29.5a2.5 2.5 0 1 1-5 .005 2.5 2.5 0 0 1 5-.005m-2 .002a.5.5 0 1 1-1 0 .5.5 0 0 1 1 0"
    clip-rule="evenodd"
  />
  <path
    fill-rule="evenodd"
    d="M25.504 32.002a2.5 2.5 0 1 0-.004-5 2.5 2.5 0 0 0 .004 5m-.002-2a.5.5 0 1 0 0-1 .5.5 0 0 0 0 1"
    clip-rule="evenodd"
  />
  <path d="M15 29a2 2 0 0 1 2 2v2h2a2 2 0 1 1 0 4h-4a2 2 0 0 1-2-2v-4a2 2 0 0 1 2-2" />
  <path d="M10 35a2 2 0 1 0-4 0v5a2 2 0 0 0 2 2h4a2 2 0 1 0 0-4h-2z" />
  <path d="M26 33a2 2 0 0 0-2 2v3h-2a2 2 0 1 0 0 4h4a2 2 0 0 0 2-2v-5a2 2 0 0 0-2-2" />
</svg>
